dist/img/SAUNA/icon/location.svg

<svg width="28" height="28" viewBox="0 0 28 28" fill="none" xmlns="http://www.w3.org/2000/svg">
<path d="M10.3879 19.25H14.6089C14.5926 19.4425 14.5833 19.6373 14.5833 19.8333C14.5833 21.2345 15.1164 22.5878 16.0673 23.9027C15.4373 25.0215 14.7174 25.6655 13.9999 25.6655C12.6034 25.6655 11.1999 23.2225 10.4556 19.5942L10.3879 19.2512V19.25Z" fill="#FF8A00"/>
<path d="M10.1197 17.5001H15.0197C15.5937 16.0355 16.6839 14.8316 18.0846 14.1156V14.0013C18.0846 13.201 18.0542 12.4205 17.9959 11.668H10.0042L9.96571 12.2373C9.86434 13.9927 9.91587 15.7536 10.1197 17.5001Z" fill="#FF8A00"/>
<path d="M20.9999 13.4167C22.8001 13.4167 24.4264 14.1576 25.5907 15.3511C25.7328 14.1224 25.6804 12.8791 25.4356 11.6667H19.7539L19.7982 12.4332C19.8157 12.7926 19.8262 13.1566 19.8321 13.5229C20.2101 13.4529 20.6021 13.4167 20.9999 13.4167Z" fill="#FF8A00"/>
<path d="M3.5769 19.2512H8.60057C9.02524 21.6802 9.7474 23.7476 10.6912 25.1931C7.72502 24.3127 5.22826 22.2933 3.74724 19.5767L3.5769 19.2512Z" fill="#FF8A00"/>
<path d="M2.5655 11.6667H8.24717C8.12511 13.384 8.13799 15.1082 8.28567 16.8234L8.35217 17.5001H2.86533C2.27437 15.6122 2.17082 13.6054 2.56433 11.6667H2.5655Z" fill="#FF8A00"/>
<path d="M17.4346 3.00644L17.3086 2.80811C19.0427 3.32278 20.6338 4.23257 21.9569 5.46599C23.28 6.69941 24.299 8.22285 24.9339 9.9166H19.5789C19.2103 7.09794 18.4624 4.67594 17.4346 3.00644Z" fill="#FF8A00"/>
<path d="M10.549 2.85127L10.6914 2.80811C9.66353 4.38311 8.89936 6.69194 8.49336 9.40327L8.42103 9.9166H3.06836C3.69426 8.24632 4.69379 6.74126 5.99054 5.5165C7.28729 4.29173 8.84692 3.37969 10.5502 2.85011L10.549 2.85127Z" fill="#FF8A00"/>
<path d="M14.0001 2.33569C15.5389 2.33569 17.0871 5.30136 17.7497 9.54919L17.8046 9.91669H10.1956C10.8267 5.47286 12.4181 2.33569 14.0001 2.33569Z" fill="#FF8A00"/>
<path d="M26.25 19.8333C26.25 18.4409 25.6969 17.1055 24.7123 16.1209C23.7277 15.1364 22.3924 14.5833 21 14.5833C19.6076 14.5833 18.2723 15.1364 17.2877 16.1209C16.3031 17.1055 15.75 18.4409 15.75 19.8333C15.75 22.0068 17.4067 24.2841 20.65 26.7166C20.751 26.7923 20.8738 26.8333 21 26.8333C21.1262 26.8333 21.249 26.7923 21.35 26.7166C24.5933 24.2841 26.25 22.0068 26.25 19.8333ZM19.25 19.8333C19.25 19.3691 19.4344 18.924 19.7626 18.5958C20.0908 18.2676 20.5359 18.0833 21 18.0833C21.4641 18.0833 21.9092 18.2676 22.2374 18.5958C22.5656 18.924 22.75 19.3691 22.75 19.8333C22.75 20.2974 22.5656 20.7425 22.2374 21.0707C21.9092 21.3989 21.4641 21.5833 21 21.5833C20.5359 21.5833 20.0908 21.3989 19.7626 21.0707C19.4344 20.7425 19.25 20.2974 19.25 19.8333Z" fill="#FF8A00"/>
</svg>

<svg width="28" height="28" viewBox="0 0 28 28" fill="none" xmlns="http://www.w3.org/2000/svg"><path d="M10.388 19.25h4.22a6.916 6.916 0 00-.025.583c0 1.402.533 2.755 1.484 4.07-.63 1.119-1.35 1.763-2.067 1.763-1.397 0-2.8-2.444-3.544-6.072l-.068-.343v-.001zm-.268-1.75h4.9a6.44 6.44 0 013.065-3.384V14c0-.8-.03-1.58-.09-2.333h-7.99l-.04.57a30.32 30.32 0 00.155 5.262zM21 13.417c1.8 0 3.426.74 4.59 1.934.143-1.229.09-2.472-.154-3.684h-5.682l.044.766c.018.36.028.724.034 1.09.378-.07.77-.106 1.168-.106zM3.577 19.251H8.6c.424 2.43 1.146 4.497 2.09 5.942a11.7 11.7 0 01-6.944-5.616l-.17-.326zm-1.011-7.584h5.681a32.912 32.912 0 00.039 5.156l.066.677H2.865a11.722 11.722 0 01-.3-5.833zm14.869-8.661l-.126-.198a11.698 11.698 0 017.625 7.109h-5.355c-.369-2.82-1.117-5.241-2.144-6.91zm-6.886-.155l.142-.043C9.664 4.383 8.9 6.692 8.493 9.403l-.072.514H3.068A11.7 11.7 0 0110.55 2.85l-.001.001zM14 2.336c1.539 0 3.087 2.965 3.75 7.213l.055.368h-7.61c.632-4.444 2.223-7.581 3.805-7.581z" fill="#FF8A00"/><path d="M26.25 19.833a5.25 5.25 0 10-10.5 0c0 2.174 1.657 4.451 4.9 6.884a.584.584 0 00.7 0c3.243-2.433 4.9-4.71 4.9-6.884zm-7 0a1.75 1.75 0 113.5 0 1.75 1.75 0 01-3.5 0z" fill="#FF8A00"/></svg>
